X: 040015
T: Deering Station 
C: BB
R: reel
Q: 1/8=350
M: 4/4
L: 1/8
K: G
D |"G"D2 B,D "Em7"E2 DE|"G"G2 FG "Bm"Bd (3d^cd|"C"cBcd "Em"egdB |"Am"cBAG "C"EDCE |
"G"D2 B,D "Em7"E2 DE|"G"G2 FG "Bm"Bd (3d^cd |"C"cBcd "Am7"eage |"D"dBAF "G"G3 :|
A | "Em"Bee^c "G"dgga|"G"bg"D"af "Em7"gfed|"Em"Bee^c "G"dege |"D"dBAF "G"G3 A |
"Em"Bee^c "G"dgga|"G"bg"D"af "Em7"gfed|"G"gb (3bab "Am7"eage |"D"dBAF "G"G3 :|
